components/Company/logos/logo-airtable.svg

<svg height="140" viewBox="0 0 400 140" width="400" xmlns="http://www.w3.org/2000/svg"><g fill="none" transform="translate(30 34)"><path d="m139.752183 43.6380512-6.061829-16.3436341c-.247903-.6684147-1.192903-.6684147-1.440805 0l-6.062342 16.3436341c-.185927.5019512.185415 1.0356586.720659 1.0356586h12.124171c.535243 0 .906073-.5337074.720146-1.0356586m2.800683 9.1857073h-19.165829c-.321659 0-.609.1997561-.720659.5009269l-3.773341 10.1691219c-.111659.3011707-.399.5009268-.720147.5009268h-8.306268c-.543951 0-.915805-.5495853-.712976-1.0540975l19.125878-47.6454146c.116781-.2909269.399-.4819757.712976-.4819757h7.95439c.313464 0 .596195.1910488.712976.4819757l19.125878 47.6449024c.202829.5050244-.169024 1.0546097-.712976 1.0546097h-8.306268c-.321146 0-.608488-.1997561-.720146-.5009268l-3.773342-10.1691219c-.111658-.3011708-.399-.5009269-.720146-.5009269m18.124946-21.2887244h7.105171c.42461 0 .768293.3441952.768293.7682927v30.9232683c0 .4240976-.343683.7682927-.768293.7682927h-7.105171c-.424097 0-.768292-.3441951-.768292-.7682927v-30.9232683c0-.4240975.344195-.7682927.768292-.7682927m33.786388 7.5223537c0 .4240976-.344195.7682927-.768293.7682927h-.215122c-3.513146 0-6.09.8430732-7.729024 2.5292195-1.640049 1.6861463-2.459049 4.4735122-2.459049 8.3610732v12.510878c0 .4240976-.343683.7682927-.768292.7682927h-7.035c-.424098 0-.768293-.3441951-.768293-.7682927v-30.9237805c0-.4240975.344195-.7682927.768293-.7682927h6.964829c.42461 0 .768292.3441952.768292.7682927v6.1171464h.140854c.843073-2.5292195 2.177854-4.4719756 4.004854-5.8313415 1.826488-1.3578293 4.075024-2.0375122 6.744585-2.0375122h.351366zm19.427151-.2856c-.424097 0-.768292.3441951-.768292.7682927v12.8622439c0 1.3117317.256609 2.2480244.772902 2.8104146.514756.5618781 1.404951.8430732 2.669561.8430732h.707341c.424098 0 .768293.3436829.768293.7682927v6.4726097c0 .4246098-.344195.7682927-.768293.7682927h-3.026048c-3.13822 0-5.550147-.8077317-7.236293-2.4237073-1.686659-1.6159756-2.529732-4.0156098-2.529732-7.2014634v-14.8997561c0-.4240976-.343683-.7682927-.768292-.7682927h-4.435098c-.42461 0-.768293-.3441951-.768293-.7682927v-5.7002195c0-.4240976.343683-.7682927.768293-.7682927h4.435098c.424609 0 .768292-.3436829.768292-.7682927v-11.4613902c0-.4240976.344195-.7682927.768293-.7682927h7.105683c.424097 0 .768293.3441951.768293.7682927v11.4613902c0 .4246098.344195.7682927.768292.7682927h5.137829c.42461 0 .768293.3441951.768293.7682927v5.7002195c0 .4240976-.343683.7682927-.768293.7682927zm32.535505 15.5976732c1.615976-1.6861464 2.423707-3.887561 2.423707-6.6047561 0-2.7156586-.807731-4.9180976-2.423707-6.6042439-1.615976-1.6861464-3.735951-2.5292195-6.358902-2.5292195-2.623464 0-4.741903.8430731-6.358391 2.5292195-1.615463 1.6861463-2.423707 3.8885853-2.423707 6.6042439 0 2.7171951.808244 4.9186097 2.423707 6.6047561 1.616488 1.6861463 3.734927 2.5292195 6.358391 2.5292195 2.622951 0 4.742926-.8430732 6.358902-2.5292195m-16.40561 8.6417561c-2.388878-1.3578293-4.27478-3.3374634-5.655658-5.9368537-1.382415-2.5993902-2.072854-5.7022683-2.072854-9.3096585 0-3.6058537.690439-6.7097561 2.072854-9.3091464 1.380878-2.5993902 3.26678-4.5774878 5.655658-5.9368536 2.388878-1.3583415 5.011317-2.0375122 7.868854-2.0375122 2.52922 0 4.695293.4917073 6.499244 1.4756341 1.802415.9834147 3.242707 2.3653171 4.320878 4.1451952h.140341v-3.7989513c0-.4240975.344196-.7682927.768293-.7682927h7.035c.42461 0 .768293.3441952.768293.7682927v30.9232683c0 .4246098-.343683.7682927-.768293.7682927h-7.035c-.424097 0-.768293-.3436829-.768293-.7682927v-3.798439h-.140341c-1.078171 1.7809024-2.518463 3.1617805-4.320878 4.1451951-1.803951.9839269-3.970024 1.4756342-6.499244 1.4756342-2.857537 0-5.479976-.679683-7.868854-2.0375122m56.658974-8.6417561c1.615975-1.6861464 2.423707-3.887561 2.423707-6.6047561 0-2.7156586-.807732-4.9180976-2.423707-6.6042439-1.615464-1.6861464-3.73544-2.5292195-6.358391-2.5292195-2.623463 0-4.742414.8430731-6.35839 2.5292195-1.615463 1.6861463-2.424219 3.8885853-2.424219 6.6042439 0 2.7171951.808756 4.9186097 2.424219 6.6047561 1.615976 1.6861463 3.734927 2.5292195 6.35839 2.5292195 2.622951 0 4.742927-.8430732 6.358391-2.5292195m-10.679269 9.2036341c-1.803439-.9834146-3.244244-2.3642927-4.320878-4.1451951h-.140853v3.798439c0 .4246098-.343683.7682927-.768293.7682927h-7.105171c-.424097 0-.768293-.3436829-.768293-.7682927v-47.6449024c0-.4240976.344196-.7682927.768293-.7682927h7.105171c.42461 0 .768293.3441951.768293.7682927v20.5205854h.140853c1.076634-1.7798781 2.517439-3.1617805 4.320878-4.1451952 1.802927-.9839268 3.969512-1.4756341 6.499244-1.4756341 2.856512 0 5.479976.6791707 7.868854 2.0375122 2.388878 1.3593658 4.273756 3.3374634 5.655658 5.9368536 1.380878 2.5993903 2.072854 5.7032927 2.072854 9.3091464 0 3.6073902-.691976 6.7102683-2.072854 9.3096585-1.381902 2.5993903-3.26678 4.5790244-5.655658 5.9368537-2.388878 1.3578292-5.012342 2.0375122-7.868854 2.0375122-2.529732 0-4.696317-.4917073-6.499244-1.4756342m34.067686.4217927h-7.105171c-.42461 0-.768293-.3441951-.768293-.7682927v-47.6449024c0-.4240976.343683-.7682927.768293-.7682927h7.105171c.424097 0 .768292.3441951.768292.7682927v47.6449024c0 .4240976-.344195.7682927-.768292.7682927m16.759843-24.9420073c-1.178048.918878-1.973487 2.2454634-2.385292 3.9807805-.113195.4783902.260195.937317.751902.937317h13.521951c.469171 0 .837952-.42.762147-.8830243-.270439-1.6415854-.974195-2.9507561-2.111781-3.929561-1.33478-1.1473171-3.080341-1.7214878-5.234634-1.7214878-2.154805 0-3.923414.5388292-5.304293 1.6159756m17.318854-4.0401951c2.763293 3.021439 4.145195 7.2962195 4.145195 12.8222926v.9178537c0 .4246098-.343683.7682927-.768292.7682927h-22.589854c-.477366 0-.843073.4343415-.76061.9045366.361098 2.052878 1.26922 3.6837073 2.724878 4.8919756 1.662073 1.3824146 3.759 2.0728536 6.28822 2.0728536 3.265244 0 6.287707-1.2743414 9.066878-3.8235365.339585-.3114147.877902-.2453415 1.141171.1326585l3.454243 4.9580488c.222293.3190975.175171.7595853-.117804 1.0156829-1.694342 1.4833171-3.563342 2.7253902-5.605464 3.7241707-2.248024 1.1001952-4.895049 1.6513171-7.939024 1.6513171-3.512634 0-6.581708-.7150244-9.204147-2.1430244-2.623975-1.428-4.660975-3.4424634-6.112024-6.0423658-1.452585-2.5993903-2.178366-5.6085366-2.178366-9.0284635 0-3.4183902.702732-6.439317 2.107683-9.0632926 1.404951-2.6224391 3.372293-4.6599513 5.902024-6.1125366 2.52922-1.4510488 5.479976-2.1778537 8.852781-2.1778537 4.963683 0 8.828195 1.5104634 11.592512 4.5313903m-174.668832-14.9104098c0 2.8985122-2.349439 5.2479512-5.247951 5.2479512s-5.248463-2.349439-5.248463-5.2479512 2.349951-5.2479512 5.248463-5.2479512 5.247951 2.349439 5.247951 5.2479512" fill="#333"/><path d="m40.4630049.95652439-33.78387807 13.97934151c-1.87873171.7775121-1.85926829 3.4460487.0312439 4.1953902l33.92524387 13.4533171c2.9809756 1.1821463 6.3005122 1.1821463 9.2809756 0l33.9257561-13.4533171c1.89-.7493415 1.9099757-3.4178781.0307317-4.1953902l-33.7833658-13.97934151c-3.0823902-1.27536585-6.5448293-1.27536585-9.6267073 0" fill="#fcb400"/><path d="m48.2859659 39.9311415v33.6081951c0 1.598561 1.611878 2.6931219 3.0977561 2.1040975l37.8030731-14.6733658c.8630488-.3421463 1.4290244-1.176 1.4290244-2.1040976v-33.6081951c0-1.598561-1.611878-2.6931219-3.0977561-2.1040976l-37.8030732 14.6733659c-.8625365.3421463-1.4290243 1.176-1.4290243 2.1040976" fill="#18bfff"/><path d="m39.4586927 41.6652293-11.219122 5.4169756-1.1391219.5506097-23.68287807 11.347683c-1.5012439.7242439-3.41736585-.3698049-3.41736585-2.0375122v-31.5440488c0-.6033659.30936585-1.1242683.7242439-1.5166098.17312195-.1736341.36929268-.3165366.57314634-.4297317.56597561-.3395853 1.37319512-.4302439 2.05953659-.1587805l35.91307319 14.2292927c1.8254634.7242439 1.968878 3.2821464.1884878 4.142122" fill="#f82b60"/><path d="m39.4586927 41.6652293-11.219122 5.4169756-27.51512192-23.1998781c.17312195-.1736341.36929268-.3165366.57314634-.4297317.56597561-.3395853 1.37319512-.4302439 2.05953659-.1587805l35.91307319 14.2292927c1.8254634.7242439 1.968878 3.2821464.1884878 4.142122" fill="#000" fill-opacity=".25"/></g></svg>

<?xml version="1.0" encoding="UTF-8"?>
<svg width="400px" height="140px" viewBox="0 0 400 140" version="1.1" xmlns="http://www.w3.org/2000/svg" xmlns:xlink="http://www.w3.org/1999/xlink">
    <title>Artboard</title>
    <g id="Artboard" stroke="none" stroke-width="1" fill="none" fill-rule="evenodd">
        <g id="Group" transform="translate(30.000000, 34.000000)" fill-rule="nonzero">
            <path d="M139.752183,43.6380512 L133.690354,27.2944171 C133.442451,26.6260024 132.497451,26.6260024 132.249549,27.2944171 L126.187207,43.6380512 C126.00128,44.1400024 126.372622,44.6737098 126.907866,44.6737098 L139.032037,44.6737098 C139.56728,44.6737098 139.93811,44.1400024 139.752183,43.6380512 M142.552866,52.8237585 L123.387037,52.8237585 C123.065378,52.8237585 122.778037,53.0235146 122.666378,53.3246854 L118.893037,63.4938073 C118.781378,63.794978 118.494037,63.9947341 118.17289,63.9947341 L109.866622,63.9947341 C109.322671,63.9947341 108.950817,63.4451488 109.153646,62.9406366 L128.279524,15.295222 C128.396305,15.0042951 128.678524,14.8132463 128.9925,14.8132463 L136.94689,14.8132463 C137.260354,14.8132463 137.543085,15.0042951 137.659866,15.295222 L156.785744,62.9401244 C156.988573,63.4451488 156.61672,63.9947341 156.072768,63.9947341 L147.7665,63.9947341 C147.445354,63.9947341 147.158012,63.794978 147.046354,63.4938073 L143.273012,53.3246854 C143.161354,53.0235146 142.874012,52.8237585 142.552866,52.8237585 M160.677812,31.5350341 L167.782983,31.5350341 C168.207593,31.5350341 168.551276,31.8792293 168.551276,32.3033268 L168.551276,63.2265951 C168.551276,63.6506927 168.207593,63.9948878 167.782983,63.9948878 L160.677812,63.9948878 C160.253715,63.9948878 159.90952,63.6506927 159.90952,63.2265951 L159.90952,32.3033268 C159.90952,31.8792293 160.253715,31.5350341 160.677812,31.5350341 M194.4642,39.0573878 C194.4642,39.4814854 194.120005,39.8256805 193.695907,39.8256805 L193.480785,39.8256805 C189.967639,39.8256805 187.390785,40.6687537 185.751761,42.3549 C184.111712,44.0410463 183.292712,46.8284122 183.292712,50.7159732 L183.292712,63.2268512 C183.292712,63.6509488 182.949029,63.9951439 182.52442,63.9951439 L175.48942,63.9951439 C175.065322,63.9951439 174.721127,63.6509488 174.721127,63.2268512 L174.721127,32.3030707 C174.721127,31.8789732 175.065322,31.534778 175.48942,31.534778 L182.454249,31.534778 C182.878859,31.534778 183.222541,31.8789732 183.222541,32.3030707 L183.222541,38.4202171 L183.363395,38.4202171 C184.206468,35.8909976 185.541249,33.9482415 187.368249,32.5888756 C189.194737,31.2310463 191.443273,30.5513634 194.112834,30.5513634 L194.4642,30.5513634 L194.4642,39.0573878 Z M213.891351,38.7717878 C213.467254,38.7717878 213.123059,39.1159829 213.123059,39.5400805 L213.123059,52.4023244 C213.123059,53.7140561 213.379668,54.6503488 213.895961,55.212739 C214.410717,55.7746171 215.300912,56.0558122 216.565522,56.0558122 L217.272863,56.0558122 C217.696961,56.0558122 218.041156,56.3994951 218.041156,56.8241049 L218.041156,63.2967146 C218.041156,63.7213244 217.696961,64.0650073 217.272863,64.0650073 L214.246815,64.0650073 C211.108595,64.0650073 208.696668,63.2572756 207.010522,61.6413 C205.323863,60.0253244 204.48079,57.6256902 204.48079,54.4398366 L204.48079,39.5400805 C204.48079,39.1159829 204.137107,38.7717878 203.712498,38.7717878 L199.2774,38.7717878 C198.85279,38.7717878 198.509107,38.4275927 198.509107,38.0034951 L198.509107,32.3032756 C198.509107,31.879178 198.85279,31.5349829 199.2774,31.5349829 L203.712498,31.5349829 C204.137107,31.5349829 204.48079,31.1913 204.48079,30.7666902 L204.48079,19.3053 C204.48079,18.8812024 204.824985,18.5370073 205.249083,18.5370073 L212.354766,18.5370073 C212.778863,18.5370073 213.123059,18.8812024 213.123059,19.3053 L213.123059,30.7666902 C213.123059,31.1913 213.467254,31.5349829 213.891351,31.5349829 L219.02918,31.5349829 C219.45379,31.5349829 219.797473,31.879178 219.797473,32.3032756 L219.797473,38.0034951 C219.797473,38.4275927 219.45379,38.7717878 219.02918,38.7717878 L213.891351,38.7717878 Z M246.426856,54.369461 C248.042832,52.6833146 248.850563,50.4819 248.850563,47.7647049 C248.850563,45.0490463 248.042832,42.8466073 246.426856,41.160461 C244.81088,39.4743146 242.690905,38.6312415 240.067954,38.6312415 C237.44449,38.6312415 235.326051,39.4743146 233.709563,41.160461 C232.0941,42.8466073 231.285856,45.0490463 231.285856,47.7647049 C231.285856,50.4819 232.0941,52.6833146 233.709563,54.369461 C235.326051,56.0556073 237.44449,56.8986805 240.067954,56.8986805 C242.690905,56.8986805 244.81088,56.0556073 246.426856,54.369461 M230.021246,63.0112171 C227.632368,61.6533878 225.746466,59.6737537 224.365588,57.0743634 C222.983173,54.4749732 222.292734,51.3720951 222.292734,47.7647049 C222.292734,44.1588512 222.983173,41.0549488 224.365588,38.4555585 C225.746466,35.8561683 227.632368,33.8780707 230.021246,32.5187049 C232.410124,31.1603634 235.032563,30.4811927 237.8901,30.4811927 C240.41932,30.4811927 242.585393,30.9729 244.389344,31.9568268 C246.191759,32.9402415 247.632051,34.3221439 248.710222,36.102022 L248.850563,36.102022 L248.850563,32.3030707 C248.850563,31.8789732 249.194759,31.534778 249.618856,31.534778 L256.653856,31.534778 C257.078466,31.534778 257.422149,31.8789732 257.422149,32.3030707 L257.422149,63.226339 C257.422149,63.6509488 257.078466,63.9946317 256.653856,63.9946317 L249.618856,63.9946317 C249.194759,63.9946317 248.850563,63.6509488 248.850563,63.226339 L248.850563,59.4279 L248.710222,59.4279 C247.632051,61.2088024 246.191759,62.5896805 244.389344,63.5730951 C242.585393,64.557022 240.41932,65.0487293 237.8901,65.0487293 C235.032563,65.0487293 232.410124,64.3690463 230.021246,63.0112171 M286.68022,54.369461 C288.296195,52.6833146 289.103927,50.4819 289.103927,47.7647049 C289.103927,45.0490463 288.296195,42.8466073 286.68022,41.160461 C285.064756,39.4743146 282.94478,38.6312415 280.321829,38.6312415 C277.698366,38.6312415 275.579415,39.4743146 273.963439,41.160461 C272.347976,42.8466073 271.53922,45.0490463 271.53922,47.7647049 C271.53922,50.4819 272.347976,52.6833146 273.963439,54.369461 C275.579415,56.0556073 277.698366,56.8986805 280.321829,56.8986805 C282.94478,56.8986805 285.064756,56.0556073 286.68022,54.369461 M276.000951,63.5730951 C274.197512,62.5896805 272.756707,61.2088024 271.680073,59.4279 L271.53922,59.4279 L271.53922,63.226339 C271.53922,63.6509488 271.195537,63.9946317 270.770927,63.9946317 L263.665756,63.9946317 C263.241659,63.9946317 262.897463,63.6509488 262.897463,63.226339 L262.897463,15.5814366 C262.897463,15.157339 263.241659,14.8131439 263.665756,14.8131439 L270.770927,14.8131439 C271.195537,14.8131439 271.53922,15.157339 271.53922,15.5814366 L271.53922,36.102022 L271.680073,36.102022 C272.756707,34.3221439 274.197512,32.9402415 276.000951,31.9568268 C277.803878,30.9729 279.970463,30.4811927 282.500195,30.4811927 C285.356707,30.4811927 287.980171,31.1603634 290.369049,32.5187049 C292.757927,33.8780707 294.642805,35.8561683 296.024707,38.4555585 C297.405585,41.0549488 298.097561,44.1588512 298.097561,47.7647049 C298.097561,51.3720951 297.405585,54.4749732 296.024707,57.0743634 C294.642805,59.6737537 292.757927,61.6533878 290.369049,63.0112171 C287.980171,64.3690463 285.356707,65.0487293 282.500195,65.0487293 C279.970463,65.0487293 277.803878,64.557022 276.000951,63.5730951 M310.068637,63.9948878 L302.963466,63.9948878 C302.538856,63.9948878 302.195173,63.6506927 302.195173,63.2265951 L302.195173,15.5816927 C302.195173,15.1575951 302.538856,14.8134 302.963466,14.8134 L310.068637,14.8134 C310.492734,14.8134 310.836929,15.1575951 310.836929,15.5816927 L310.836929,63.2265951 C310.836929,63.6506927 310.492734,63.9948878 310.068637,63.9948878 M326.82848,39.0528805 C325.650432,39.9717585 324.854993,41.2983439 324.443188,43.033661 C324.329993,43.5120512 324.703383,43.970978 325.19509,43.970978 L338.717041,43.970978 C339.186212,43.970978 339.554993,43.550978 339.479188,43.0879537 C339.208749,41.4463683 338.504993,40.1371976 337.367407,39.1583927 C336.032627,38.0110756 334.287066,37.4369049 332.132773,37.4369049 C329.977968,37.4369049 328.209359,37.9757341 326.82848,39.0528805 M344.147334,35.0126854 C346.910627,38.0341244 348.292529,42.3089049 348.292529,47.834978 L348.292529,48.7528317 C348.292529,49.1774415 347.948846,49.5211244 347.524237,49.5211244 L324.934383,49.5211244 C324.457017,49.5211244 324.09131,49.9554659 324.173773,50.425661 C324.534871,52.478539 325.442993,54.1093683 326.898651,55.3176366 C328.560724,56.7000512 330.657651,57.3904902 333.186871,57.3904902 C336.452115,57.3904902 339.474578,56.1161488 342.253749,53.5669537 C342.593334,53.255539 343.131651,53.3216122 343.39492,53.6996122 L346.849163,58.657661 C347.071456,58.9767585 347.024334,59.4172463 346.731359,59.6733439 C345.037017,61.156661 343.168017,62.3987341 341.125895,63.3975146 C338.877871,64.4977098 336.230846,65.0488317 333.186871,65.0488317 C329.674237,65.0488317 326.605163,64.3338073 323.982724,62.9058073 C321.358749,61.4778073 319.321749,59.4633439 317.8707,56.8634415 C316.418115,54.2640512 315.692334,51.2549049 315.692334,47.834978 C315.692334,44.4165878 316.395066,41.395661 317.800017,38.7716854 C319.204968,36.1492463 321.17231,34.1117341 323.702041,32.6591488 C326.231261,31.2081 329.182017,30.4812951 332.554822,30.4812951 C337.518505,30.4812951 341.383017,31.9917585 344.147334,35.0126854 M169.478502,20.1022756 C169.478502,23.0007878 167.129063,25.3502268 164.230551,25.3502268 C161.332039,25.3502268 158.982088,23.0007878 158.982088,20.1022756 C158.982088,17.2037634 161.332039,14.8543244 164.230551,14.8543244 C167.129063,14.8543244 169.478502,17.2037634 169.478502,20.1022756" id="Shape" fill="#333333"></path>
            <path d="M40.4630049,0.95652439 L6.67912683,14.9358659 C4.80039512,15.713378 4.81985854,18.3819146 6.71037073,19.1312561 L40.6356146,32.5845732 C43.6165902,33.7667195 46.9361268,33.7667195 49.9165902,32.5845732 L83.8423463,19.1312561 C85.7323463,18.3819146 85.752322,15.713378 83.873078,14.9358659 L50.0897122,0.95652439 C47.007322,-0.318841463 43.5448829,-0.318841463 40.4630049,0.95652439" id="Path" fill="#FCB400"></path>
            <path d="M48.2859659,39.9311415 L48.2859659,73.5393366 C48.2859659,75.1378976 49.8978439,76.2324585 51.383722,75.6434341 L89.1867951,60.9700683 C90.0498439,60.627922 90.6158195,59.7940683 90.6158195,58.8659707 L90.6158195,25.2577756 C90.6158195,23.6592146 89.0039415,22.5646537 87.5180634,23.153678 L49.7149902,37.8270439 C48.8524537,38.1691902 48.2859659,39.0030439 48.2859659,39.9311415" id="Path" fill="#18BFFF"></path>
            <path d="M39.4586927,41.6652293 L28.2395707,47.0822049 L27.1004488,47.6328146 L3.41757073,58.9804976 C1.91632683,59.7047415 0.000204878049,58.6106927 0.000204878049,56.9429854 L0.000204878049,25.3989366 C0.000204878049,24.7955707 0.309570732,24.2746683 0.72444878,23.8823268 C0.897570732,23.7086927 1.09374146,23.5657902 1.29759512,23.4525951 C1.86357073,23.1130098 2.67079024,23.0223512 3.35713171,23.2938146 L39.2702049,37.5231073 C41.0956683,38.2473512 41.2390829,40.8052537 39.4586927,41.6652293" id="Path" fill="#F82B60"></path>
            <path d="M39.4586927,41.6652293 L28.2395707,47.0822049 L0.72444878,23.8823268 C0.897570732,23.7086927 1.09374146,23.5657902 1.29759512,23.4525951 C1.86357073,23.1130098 2.67079024,23.0223512 3.35713171,23.2938146 L39.2702049,37.5231073 C41.0956683,38.2473512 41.2390829,40.8052537 39.4586927,41.6652293" id="Path" fill-opacity="0.25" fill="#000000"></path>
        </g>
    </g>
</svg>
